;FLAVOR:Marlin
;TIME:2539
;Filament used: 1.51529m
;Layer height: 0.2
;MINX:64.001
;MINY:94.001
;MINZ:0.3
;MAXX:170.999
;MAXY:130.999
;MAXZ:9.9
;Generated with Cura_SteamEngine 4.8.0
M140 S50
M105
M190 S50
M104 S205
M105
M109 S205
M82 ;absolute extrusion mode
M201 X500.00 Y500.00 Z100.00 E5000.00 ;Setup machine max acceleration
M203 X500.00 Y500.00 Z10.00 E50.00 ;Setup machine max feedrate
M204 P500.00 R1000.00 T500.00 ;Setup Print/Retract/Travel acceleration
M205 X8.00 Y8.00 Z0.40 E5.00 ;Setup Jerk
M220 S100 ;Reset Feedrate
M221 S100 ;Reset Flowrate

G28 ;Home

G92 E0 ;Reset Extruder
G1 Z2.0 F3000 ;Move Z Axis up
G1 X10.1 Y20 Z0.28 F5000.0 ;Move to start position
G1 X10.1 Y200.0 Z0.28 F1500.0 E15 ;Draw the first line
G1 X10.4 Y200.0 Z0.28 F5000.0 ;Move to side a little
G1 X10.4 Y20 Z0.28 F1500.0 E30 ;Draw the second line
G92 E0 ;Reset Extruder
G1 Z2.0 F3000 ;Move Z Axis up

G92 E0
G92 E0
G1 F2700 E-5
;LAYER_COUNT:49
;LAYER:0
M107
G0 F6000 X68.855 Y96.382 Z0.3
;TYPE:SKIRT
G1 F2700 E0
G1 F1200 X69.626 Y95.849 E0.04676
G1 X70.44 Y95.383 E0.09356
G1 X71.066 Y95.084 E0.12817
G1 X71.296 Y94.983 E0.1407
G1 X72.17 Y94.643 E0.18749
G1 X73.07 Y94.379 E0.23428
G1 X74.079 Y94.178 E0.28561
G1 X74.384 Y94.132 E0.301
G1 X75.643 Y94.016 E0.36407
G1 X75.874 Y94.008 E0.37561
G1 X76.255 Y94.001 E0.39462
G1 X77.838 Y94.001 E0.47359
G1 X78.644 Y94.011 E0.51381
G1 X79.278 Y94.038 E0.54547
G1 X80.374 Y94.116 E0.60029
G1 X82.957 Y94.264 E0.72936
G1 X85.454 Y94.336 E0.85399
G1 X87.979 Y94.338 E0.97996
G1 X90.492 Y94.269 E1.10539
G1 X93.036 Y94.125 E1.23251
G1 X93.885 Y94.058 E1.275
G1 X94.339 Y94.029 E1.29769
G1 X94.654 Y94.015 E1.31342
G1 X94.906 Y94.007 E1.326
G1 X95.255 Y94.001 E1.34342
G1 X97.002 Y94.002 E1.43058
G1 X97.674 Y94.012 E1.46411
G1 X98.961 Y94.107 E1.52849
G1 X99.209 Y94.14 E1.54097
G1 X99.667 Y94.211 E1.56409
G1 X100.029 Y94.276 E1.58244
G1 X102.151 Y94.677 E1.69018
G1 X104.682 Y95.082 E1.81806
G1 X107.129 Y95.403 E1.94119
G1 X109.661 Y95.663 E2.06818
G1 X112.156 Y95.847 E2.19299
G1 X114.712 Y95.964 E2.32064
G1 X117.203 Y96.007 E2.44494
G1 X119.688 Y95.981 E2.56892
G1 X122.244 Y95.881 E2.69654
G1 X124.74 Y95.712 E2.82135
G1 X127.271 Y95.469 E2.9482
G1 X129.744 Y95.16 E3.07254
G1 X132.181 Y94.786 E3.19555
G1 X133.82 Y94.476 E3.27877
G1 X134.129 Y94.431 E3.29434
G1 X135.079 Y94.258 E3.34252
G1 X135.437 Y94.199 E3.36062
G1 X135.908 Y94.129 E3.38438
G1 X137.143 Y94.016 E3.44625
G1 X137.373 Y94.008 E3.45773
G1 X137.755 Y94.001 E3.47679
G1 X139.489 Y94.002 E3.5633
G1 X140.144 Y94.011 E3.59598
G1 X140.778 Y94.038 E3.62764
G1 X141.874 Y94.116 E3.68246
G1 X144.457 Y94.264 E3.81154
G1 X146.954 Y94.336 E3.93617
G1 X149.479 Y94.338 E4.06214
G1 X151.992 Y94.269 E4.18756
G1 X154.536 Y94.125 E4.31468
G1 X155.385 Y94.058 E4.35717
G1 X155.839 Y94.029 E4.37987
G1 X156.154 Y94.015 E4.3956
G1 X156.406 Y94.007 E4.40818
G1 X156.755 Y94.001 E4.42559
G1 X158.487 Y94.002 E4.512
G1 X159.151 Y94.011 E4.54513
G1 X160.49 Y94.111 E4.61212
G1 X160.717 Y94.142 E4.62355
G1 X161.64 Y94.309 E4.67035
G1 X162.546 Y94.553 E4.71716
G1 X163.214 Y94.788 E4.75249
G1 X163.443 Y94.877 E4.76474
G1 X164.302 Y95.254 E4.81155
G1 X165.125 Y95.702 E4.85829
G1 X166.026 Y96.306 E4.91241
G1 X166.288 Y96.501 E4.92871
G1 X167.015 Y97.092 E4.97545
G1 X167.69 Y97.744 E5.02227
G1 X168.469 Y98.657 E5.08215
G1 X168.594 Y98.821 E5.09243
G1 X169.13 Y99.59 E5.1392
G1 X169.598 Y100.403 E5.186
G1 X169.933 Y101.103 E5.22472
G1 X170.033 Y101.333 E5.23723
G1 X170.37 Y102.208 E5.28401
G1 X170.631 Y103.109 E5.33081
G1 X170.82 Y104.068 E5.37957
G1 X170.866 Y104.371 E5.39486
G1 X170.985 Y105.648 E5.45885
G1 X170.993 Y105.883 E5.47058
G1 X170.999 Y106.257 E5.48924
G1 X170.998 Y118.433 E6.0967
G1 X170.988 Y119.157 E6.13283
G1 X170.903 Y120.381 E6.19404
G1 X170.875 Y120.603 E6.2052
G1 X170.718 Y121.528 E6.25201
G1 X170.483 Y122.436 E6.29881
G1 X170.195 Y123.259 E6.34231
G1 X170.104 Y123.49 E6.35469
G1 X169.724 Y124.347 E6.40146
G1 X169.272 Y125.169 E6.44826
G1 X168.694 Y126.026 E6.49984
G1 X168.499 Y126.288 E6.51613
G1 X167.908 Y127.015 E6.56287
G1 X167.256 Y127.69 E6.60969
G1 X166.309 Y128.494 E6.67167
G1 X166.145 Y128.618 E6.68193
G1 X165.374 Y129.151 E6.72869
G1 X164.56 Y129.617 E6.77548
G1 X163.934 Y129.916 E6.8101
G1 X163.704 Y130.017 E6.82263
G1 X162.83 Y130.357 E6.86942
G1 X161.93 Y130.621 E6.91621
G1 X160.921 Y130.822 E6.96754
G1 X160.616 Y130.868 E6.98293
G1 X159.352 Y130.985 E7.04626
G1 X159.118 Y130.993 E7.05794
G1 X158.742 Y130.999 E7.0767
G1 X76.541 Y130.998 E11.17772
G1 X75.843 Y130.988 E11.21255
G1 X74.578 Y130.897 E11.27582
G1 X74.348 Y130.867 E11.2874
G1 X73.424 Y130.706 E11.33419
G1 X72.517 Y130.467 E11.38098
G1 X71.786 Y130.212 E11.41961
G1 X71.557 Y130.123 E11.43187
G1 X70.698 Y129.746 E11.47867
G1 X69.875 Y129.298 E11.52542
G1 X68.974 Y128.694 E11.57953
G1 X68.712 Y128.499 E11.59583
G1 X67.985 Y127.908 E11.64257
G1 X67.31 Y127.256 E11.68939
G1 X66.512 Y126.317 E11.75087
G1 X66.387 Y126.152 E11.7612
G1 X65.853 Y125.381 E11.80799
G1 X65.387 Y124.568 E11.85474
G1 X65.067 Y123.896 E11.89187
G1 X64.967 Y123.666 E11.90438
G1 X64.63 Y122.791 E11.95116
G1 X64.369 Y121.89 E11.99796
G1 X64.179 Y120.926 E12.04698
G1 X64.133 Y120.622 E12.06232
G1 X64.014 Y119.321 E12.1275
G1 X64.006 Y119.066 E12.14023
G1 X64.001 Y118.721 E12.15744
G1 X64.002 Y106.49 E12.76765
G1 X64.012 Y105.827 E12.80073
G1 X64.099 Y104.604 E12.8619
G1 X64.127 Y104.384 E12.87296
G1 X64.285 Y103.46 E12.91973
G1 X64.521 Y102.552 E12.96654
G1 X64.805 Y101.741 E13.00941
G1 X64.896 Y101.51 E13.02179
G1 X65.276 Y100.653 E13.06857
G1 X65.728 Y99.831 E13.11537
G1 X66.306 Y98.974 E13.16694
G1 X66.501 Y98.712 E13.18323
G1 X67.092 Y97.985 E13.22997
G1 X67.744 Y97.31 E13.2768
G1 X68.691 Y96.506 E13.33877
G1 X68.855 Y96.382 E13.34903
G0 F6000 X69.096 Y96.701
G1 F1200 X69.854 Y96.178 E13.39497
G1 X70.654 Y95.723 E13.44089
G1 X71.227 Y95.451 E13.47253
G1 X71.457 Y95.35 E13.48507
G1 X72.315 Y95.016 E13.531
G1 X73.199 Y94.759 E13.57693
G1 X74.138 Y94.574 E13.62468
G1 X74.443 Y94.528 E13.64007
G1 X75.657 Y94.415 E13.7009
G1 X75.888 Y94.407 E13.71243
G1 X76.255 Y94.401 E13.73074
G1 X77.838 Y94.401 E13.80972
G1 X78.639 Y94.411 E13.84968
G1 X79.25 Y94.437 E13.88019
G1 X80.326 Y94.514 E13.93401
G1 X82.922 Y94.662 E14.06374
G1 X85.477 Y94.736 E14.19126
G1 X87.99 Y94.738 E14.31663
G1 X90.525 Y94.668 E14.44315
G1 X93.049 Y94.526 E14.56927
G1 X94.115 Y94.443 E14.62262
G1 X94.363 Y94.428 E14.63501
G1 X94.667 Y94.414 E14.6502
G1 X94.919 Y94.406 E14.66277
G1 X95.255 Y94.401 E14.67954
G1 X96.996 Y94.402 E14.7664
G1 X97.668 Y94.412 E14.79993
G1 X98.908 Y94.504 E14.86196
G1 X99.156 Y94.537 E14.87444
G1 X99.598 Y94.605 E14.89676
G1 X99.955 Y94.669 E14.91485
G1 X102.085 Y95.072 E15.023
G1 X104.604 Y95.475 E15.15027
G1 X107.107 Y95.803 E15.27622
G1 X109.627 Y96.061 E15.4026
G1 X112.142 Y96.248 E15.52842
G1 X114.687 Y96.364 E15.65552
G1 X117.201 Y96.407 E15.78096
G1 X119.708 Y96.381 E15.90604
G1 X122.251 Y96.281 E16.03301
G1 X124.772 Y96.11 E16.15907
G1 X127.323 Y95.866 E16.28692
G1 X129.778 Y95.559 E16.41036
G1 X132.259 Y95.178 E16.53559
G1 X133.894 Y94.869 E16.6186
G1 X134.189 Y94.827 E16.63347
G1 X135.151 Y94.651 E16.68226
G1 X135.496 Y94.594 E16.6997
G1 X135.967 Y94.524 E16.72346
G1 X137.157 Y94.415 E16.78308
G1 X137.387 Y94.407 E16.79456
G1 X137.755 Y94.401 E16.81292
G1 X139.484 Y94.402 E16.89918
G1 X140.139 Y94.411 E16.93186
G1 X140.75 Y94.437 E16.96237
G1 X141.826 Y94.514 E17.01619
G1 X144.422 Y94.662 E17.14592
G1 X146.977 Y94.736 E17.27344
G1 X149.49 Y94.738 E17.39882
G1 X152.025 Y94.668 E17.52534
G1 X154.549 Y94.526 E17.65146
G1 X155.615 Y94.443 E17.7048
G1 X155.863 Y94.428 E17.7172
G1 X156.167 Y94.414 E17.73238
G1 X156.419 Y94.406 E17.74496
G1 X156.755 Y94.401 E17.76172
G1 X158.482 Y94.402 E17.84788
G1 X159.146 Y94.411 E17.88101
G1 X160.436 Y94.507 E17.94555
G1 X160.663 Y94.538 E17.95698
G1 X161.569 Y94.703 E18.00292
G1 X162.457 Y94.945 E18.04884
G1 X163.069 Y95.161 E18.08122
G1 X163.298 Y95.25 E18.09348
G1 X164.141 Y95.62 E18.13941
G1 X164.948 Y96.063 E18.18534
G1 X165.787 Y96.627 E18.23577
G1 X166.049 Y96.822 E18.25207
G1 X166.763 Y97.403 E18.29799
G1 X167.424 Y98.044 E18.34393
G1 X168.15 Y98.899 E18.39989
G1 X168.275 Y99.063 E18.41018
G1 X168.801 Y99.819 E18.45613
G1 X169.259 Y100.618 E18.50207
G1 X169.566 Y101.263 E18.53771
G1 X169.666 Y101.493 E18.55022
G1 X169.996 Y102.352 E18.59613
G1 X170.25 Y103.237 E18.64207
G1 X170.425 Y104.128 E18.68737
G1 X170.471 Y104.431 E18.70266
G1 X170.585 Y105.661 E18.76429
G1 X170.593 Y105.896 E18.77602
G1 X170.599 Y106.257 E18.79403
G1 X170.598 Y118.427 E19.40119
G1 X170.588 Y119.151 E19.43732
G1 X170.506 Y120.331 E19.49633
G1 X170.478 Y120.553 E19.50749
G1 X170.323 Y121.461 E19.55345
G1 X170.09 Y122.352 E19.5994
G1 X169.823 Y123.112 E19.63958
G1 X169.732 Y123.343 E19.65197
G1 X169.358 Y124.184 E19.69789
G1 X168.912 Y124.99 E19.74385
G1 X168.373 Y125.787 E19.79185
G1 X168.178 Y126.049 E19.80814
G1 X167.597 Y126.763 E19.85407
G1 X166.956 Y127.424 E19.90001
G1 X166.068 Y128.175 E19.95803
G1 X165.904 Y128.299 E19.96829
G1 X165.146 Y128.822 E20.01423
G1 X164.346 Y129.277 E20.06015
G1 X163.773 Y129.549 E20.09179
G1 X163.543 Y129.65 E20.10432
G1 X162.685 Y129.984 E20.15026
G1 X161.801 Y130.241 E20.19619
G1 X160.862 Y130.426 E20.24393
G1 X160.557 Y130.472 E20.25932
G1 X159.338 Y130.585 E20.3204
G1 X159.104 Y130.593 E20.33208
G1 X158.742 Y130.599 E20.35014
G1 X76.547 Y130.598 E24.45087
G1 X75.849 Y130.588 E24.4857
G1 X74.63 Y130.5 E24.54667
G1 X74.4 Y130.47 E24.55824
G1 X73.493 Y130.311 E24.60418
G1 X72.603 Y130.075 E24.65012
G1 X71.931 Y129.839 E24.68565
G1 X71.702 Y129.75 E24.69791
G1 X70.859 Y129.38 E24.74384
G1 X70.052 Y128.937 E24.78977
G1 X69.213 Y128.373 E24.84021
G1 X68.951 Y128.178 E24.8565
G1 X68.237 Y127.597 E24.90243
G1 X67.576 Y126.956 E24.94836
G1 X66.831 Y126.076 E25.00589
G1 X66.706 Y125.911 E25.01621
G1 X66.182 Y125.154 E25.06215
G1 X65.726 Y124.354 E25.10809
G1 X65.434 Y123.736 E25.14219
G1 X65.334 Y123.506 E25.1547
G1 X65.004 Y122.647 E25.20061
G1 X64.75 Y121.762 E25.24654
G1 X64.574 Y120.866 E25.2921
G1 X64.528 Y120.562 E25.30744
G1 X64.414 Y119.308 E25.37026
G1 X64.406 Y119.053 E25.38299
G1 X64.401 Y118.721 E25.39955
G1 X64.402 Y106.496 E26.00946
G1 X64.412 Y105.833 E26.04254
G1 X64.496 Y104.655 E26.10146
G1 X64.524 Y104.435 E26.11253
G1 X64.68 Y103.527 E26.15849
G1 X64.914 Y102.637 E26.2044
G1 X65.177 Y101.888 E26.24401
G1 X65.268 Y101.657 E26.25639
G1 X65.642 Y100.816 E26.30231
G1 X66.088 Y100.01 E26.34827
G1 X66.627 Y99.213 E26.39627
G1 X66.822 Y98.951 E26.41256
G1 X67.403 Y98.237 E26.45849
G1 X68.044 Y97.576 E26.50443
G1 X68.932 Y96.825 E26.56245
G1 X69.096 Y96.701 E26.57271
G0 F6000 X69.337 Y97.02
G1 F1200 X70.081 Y96.508 E26.61776
G1 X70.867 Y96.063 E26.66283
G1 X71.388 Y95.817 E26.69157
G1 X71.618 Y95.716 E26.7041
G1 X72.46 Y95.39 E26.74915
G1 X73.328 Y95.139 E26.79423
G1 X74.198 Y94.969 E26.83845
G1 X74.503 Y94.923 E26.85384
G1 X75.671 Y94.815 E26.91236
G1 X75.902 Y94.807 E26.92389
G1 X76.255 Y94.801 E26.94151
G1 X77.838 Y94.801 E27.02048
G1 X78.633 Y94.811 E27.06015
G1 X79.221 Y94.836 E27.08951
G1 X80.338 Y94.916 E27.14538
G1 X82.889 Y95.061 E27.27286
G1 X85.466 Y95.136 E27.40148
G1 X88.001 Y95.138 E27.52795
G1 X90.524 Y95.068 E27.65387
G1 X93.103 Y94.923 E27.78274
G1 X93.949 Y94.856 E27.82508
G1 X94.387 Y94.828 E27.84698
G1 X94.679 Y94.814 E27.86156
G1 X94.931 Y94.806 E27.87414
G1 X95.255 Y94.801 E27.89031
G1 X96.99 Y94.802 E27.97687
G1 X97.662 Y94.812 E28.0104
G1 X98.855 Y94.9 E28.07008
G1 X99.103 Y94.933 E28.08256
G1 X99.528 Y94.999 E28.10402
G1 X99.88 Y95.062 E28.12186
G1 X102.013 Y95.465 E28.23016
G1 X104.56 Y95.873 E28.35885
G1 X107.051 Y96.2 E28.48419
G1 X109.59 Y96.46 E28.61152
G1 X112.132 Y96.648 E28.73869
G1 X114.66 Y96.764 E28.86495
G1 X117.198 Y96.808 E28.99159
G1 X119.728 Y96.781 E29.11782
G1 X122.258 Y96.681 E29.24414
G1 X124.837 Y96.507 E29.3731
G1 X127.305 Y96.27 E29.49679
G1 X129.857 Y95.952 E29.6251
G1 X132.333 Y95.571 E29.75008
G1 X133.968 Y95.262 E29.83309
G1 X134.274 Y95.218 E29.84852
G1 X135.223 Y95.045 E29.89664
G1 X135.555 Y94.99 E29.91343
G1 X136.026 Y94.92 E29.93719
G1 X137.17 Y94.815 E29.9945
G1 X137.4 Y94.807 E30.00598
G1 X137.755 Y94.801 E30.0237
G1 X139.478 Y94.802 E30.10966
G1 X140.133 Y94.811 E30.14234
G1 X140.721 Y94.836 E30.1717
G1 X141.838 Y94.916 E30.22757
G1 X144.389 Y95.061 E30.35505
G1 X146.966 Y95.136 E30.48367
G1 X149.501 Y95.138 E30.61014
G1 X152.024 Y95.068 E30.73606
G1 X154.603 Y94.923 E30.86493
G1 X155.449 Y94.856 E30.90727
G1 X155.887 Y94.828 E30.92917
G1 X156.179 Y94.814 E30.94375
G1 X156.431 Y94.806 E30.95633
G1 X156.755 Y94.801 E30.9725
G1 X158.476 Y94.802 E31.05836
G1 X159.14 Y94.811 E31.09149
G1 X160.382 Y94.904 E31.15362
G1 X160.609 Y94.935 E31.16505
G1 X161.498 Y95.096 E31.21013
G1 X162.368 Y95.336 E31.25515
G1 X162.924 Y95.534 E31.2846
G1 X163.153 Y95.623 E31.29686
G1 X163.979 Y95.987 E31.34189
G1 X164.77 Y96.423 E31.38695
G1 X165.548 Y96.948 E31.43378
G1 X165.81 Y97.143 E31.45007
G1 X166.51 Y97.713 E31.49511
G1 X167.157 Y98.344 E31.5402
G1 X167.832 Y99.142 E31.59234
G1 X167.957 Y99.306 E31.60263
G1 X168.472 Y100.048 E31.64769
G1 X168.92 Y100.832 E31.69274
G1 X169.199 Y101.422 E31.7253
G1 X169.299 Y101.652 E31.73781
G1 X169.622 Y102.495 E31.78285
G1 X169.869 Y103.364 E31.82792
G1 X170.029 Y104.188 E31.8698
G1 X170.075 Y104.491 E31.88509
G1 X170.185 Y105.675 E31.94441
G1 X170.193 Y105.91 E31.95615
G1 X170.199 Y106.257 E31.97346
G1 X170.198 Y118.422 E32.58037
G1 X170.188 Y119.146 E32.6165
G1 X170.109 Y120.281 E32.67326
G1 X170.081 Y120.503 E32.68442
G1 X169.928 Y121.394 E32.72953
G1 X169.698 Y122.267 E32.77457
G1 X169.451 Y122.966 E32.81155
G1 X169.36 Y123.197 E32.82394
G1 X168.992 Y124.021 E32.86896
G1 X168.553 Y124.81 E32.91401
G1 X168.052 Y125.548 E32.95851
G1 X167.857 Y125.81 E32.97481
G1 X167.287 Y126.51 E33.01984
G1 X166.656 Y127.157 E33.06493
G1 X165.827 Y127.856 E33.11903
G1 X165.663 Y127.98 E33.12929
G1 X164.919 Y128.492 E33.17435
G1 X164.133 Y128.937 E33.21941
G1 X163.612 Y129.183 E33.24815
G1 X163.382 Y129.284 E33.26068
G1 X162.54 Y129.61 E33.30573
G1 X161.672 Y129.861 E33.35081
G1 X160.802 Y130.031 E33.39503
G1 X160.497 Y130.077 E33.41042
G1 X159.325 Y130.185 E33.46914
G1 X159.091 Y130.193 E33.48082
G1 X158.742 Y130.199 E33.49824
G1 X76.553 Y130.198 E37.59866
G1 X75.855 Y130.188 E37.63349
G1 X74.682 Y130.103 E37.69217
G1 X74.452 Y130.073 E37.70374
G1 X73.562 Y129.917 E37.74882
G1 X72.69 Y129.683 E37.79386
G1 X72.076 Y129.466 E37.82635
G1 X71.847 Y129.377 E37.83861
G1 X71.021 Y129.013 E37.88364
G1 X70.23 Y128.577 E37.9287
G1 X69.452 Y128.052 E37.97553
G1 X69.19 Y127.857 E37.99182
G1 X68.49 Y127.287 E38.03686
G1 X67.843 Y126.656 E38.08195
G1 X67.15 Y125.834 E38.13558
G1 X67.025 Y125.669 E38.14591
G1 X66.512 Y124.926 E38.19096
G1 X66.067 Y124.14 E38.23602
G1 X65.801 Y123.577 E38.26709
G1 X65.701 Y123.347 E38.2796
G1 X65.378 Y122.504 E38.32464
G1 X65.131 Y121.635 E38.36971
G1 X64.97 Y120.806 E38.41184
G1 X64.924 Y120.502 E38.42718
G1 X64.814 Y119.296 E38.4876
G1 X64.806 Y119.041 E38.50033
G1 X64.801 Y118.721 E38.51629
G1 X64.802 Y106.502 E39.1259
G1 X64.812 Y105.839 E39.15898
G1 X64.893 Y104.705 E39.2157
G1 X64.921 Y104.485 E39.22677
G1 X65.074 Y103.595 E39.27182
G1 X65.306 Y102.722 E39.31689
G1 X65.549 Y102.034 E39.35329
G1 X65.64 Y101.803 E39.36567
G1 X66.008 Y100.979 E39.4107
G1 X66.447 Y100.19 E39.45574
G1 X66.948 Y99.452 E39.50024
G1 X67.143 Y99.19 E39.51654
G1 X67.713 Y98.49 E39.56158
G1 X68.344 Y97.843 E39.60666
G1 X69.173 Y97.144 E39.66076
G1 X69.337 Y97.02 E39.67102
G1 F2700 E34.67102
;MESH:Link plate v5.stl
G0 F6000 X95.072 Y103.65
G0 X134.846 Y114.285
G0 X135.127 Y115.341
G0 X136.47 Y114.956
G0 X137.271 Y113.051
G0 X137.272 Y106.052
G0 X137.391 Y105.814
G0 X140.108 Y105.813
G0 X140.4 Y115.6
;TYPE:WALL-INNER
G1 F2700 E39.67102
G1 F1200 X156.1 Y115.6 E40.4543
G1 X156.101 Y106.029 E40.9318
G1 X156.157 Y105.805 E40.94332
G1 X156.305 Y105.657 E40.95376
G1 X156.54 Y105.6 E40.96582
G1 X158.968 Y105.601 E41.08696
G1 X159.195 Y105.657 E41.09862
G1 X159.343 Y105.805 E41.10906
